public/assets/kaartFront4.svg

<svg width="244" height="347" viewBox="0 0 244 347" fill="none" xmlns="http://www.w3.org/2000/svg">
<path d="M235.39 344.281L0 347L7.8981 0L243.029 0.517911L235.39 344.281Z" fill="#FEF1F0"/>
<path d="M98.9167 63.4424C98.9167 63.1834 98.9167 62.9245 98.9167 62.6655C98.9167 56.3211 93.8671 51.2715 87.5227 51.2715C81.1783 51.2715 76.1287 56.3211 76.1287 62.6655C76.1287 62.9245 76.1287 63.1834 76.1287 63.4424C71.5969 64.8666 68.2305 69.2689 68.2305 74.3185C68.2305 80.6629 73.2802 85.7125 79.6246 85.7125C81.6962 85.7125 83.6383 85.1946 85.3215 84.1588L83.3794 94.2581L95.1619 93.9991L89.7238 84.2883C91.407 85.1946 93.2197 85.7125 95.2913 85.7125C101.636 85.7125 106.685 80.6629 106.685 74.3185C106.815 69.2689 103.448 64.9961 98.9167 63.4424Z" fill="#5C414E"/>
<path d="M98.9167 162.882C98.9167 162.623 98.9167 162.364 98.9167 162.105C98.9167 155.761 93.8671 150.711 87.5227 150.711C81.1783 150.711 76.1287 155.761 76.1287 162.105C76.1287 162.364 76.1287 162.623 76.1287 162.882C71.5969 164.306 68.2305 168.708 68.2305 173.758C68.2305 180.102 73.2802 185.152 79.6246 185.152C81.6962 185.152 83.6383 184.634 85.3215 183.598L83.3794 193.698L95.1619 193.439L89.7238 183.728C91.407 184.634 93.2197 185.152 95.2913 185.152C101.636 185.152 106.685 180.102 106.685 173.758C106.815 168.708 103.448 164.306 98.9167 162.882Z" fill="#5C414E"/>
<path d="M98.9167 262.319C98.9167 262.06 98.9167 261.801 98.9167 261.542C98.9167 255.198 93.8671 250.148 87.5227 250.148C81.1783 250.148 76.1287 255.198 76.1287 261.542C76.1287 261.801 76.1287 262.06 76.1287 262.319C71.5969 263.744 68.2305 268.146 68.2305 273.195C68.2305 279.54 73.2802 284.589 79.6246 284.589C81.6962 284.589 83.6383 284.072 85.3215 283.036L83.3794 293.135L95.1619 292.876L89.7238 283.165C91.407 284.072 93.2197 284.589 95.2913 284.589C101.636 284.589 106.685 279.54 106.685 273.195C106.815 268.016 103.448 263.744 98.9167 262.319Z" fill="#5C414E"/>
<path d="M167.155 63.4424C167.155 63.1834 167.155 62.9245 167.155 62.6655C167.155 56.3211 162.105 51.2715 155.761 51.2715C149.417 51.2715 144.367 56.3211 144.367 62.6655C144.367 62.9245 144.367 63.1834 144.367 63.4424C139.835 64.8666 136.469 69.2689 136.469 74.3185C136.469 80.6629 141.518 85.7125 147.863 85.7125C149.934 85.7125 151.877 85.1946 153.56 84.1588L151.618 94.2581L163.4 93.9991L157.962 84.2883C159.645 85.1946 161.458 85.7125 163.53 85.7125C169.874 85.7125 174.924 80.6629 174.924 74.3185C175.053 69.2689 171.687 64.9961 167.155 63.4424Z" fill="#5C414E"/>
<path d="M167.155 162.88C167.155 162.621 167.155 162.362 167.155 162.103C167.155 155.759 162.105 150.709 155.761 150.709C149.417 150.709 144.367 155.759 144.367 162.103C144.367 162.362 144.367 162.621 144.367 162.88C139.835 164.304 136.469 168.706 136.469 173.756C136.469 180.1 141.518 185.15 147.863 185.15C149.934 185.15 151.877 184.632 153.56 183.596L151.618 193.696L163.4 193.437L157.962 183.726C159.645 184.632 161.458 185.15 163.53 185.15C169.874 185.15 174.924 180.1 174.924 173.756C175.053 168.706 171.687 164.304 167.155 162.88Z" fill="#5C414E"/>
<path d="M167.155 262.319C167.155 262.06 167.155 261.801 167.155 261.542C167.155 255.198 162.105 250.148 155.761 250.148C149.417 250.148 144.367 255.198 144.367 261.542C144.367 261.801 144.367 262.06 144.367 262.319C139.835 263.744 136.469 268.146 136.469 273.195C136.469 279.54 141.518 284.589 147.863 284.589C149.934 284.589 151.877 284.072 153.56 283.036L151.618 293.135L163.4 292.876L157.962 283.165C159.645 284.072 161.458 284.589 163.53 284.589C169.874 284.589 174.924 279.54 174.924 273.195C175.053 268.016 171.687 263.744 167.155 262.319Z" fill="#5C414E"/>
<path d="M35.8657 53.8602C35.8657 53.7307 35.8657 53.6012 35.8657 53.6012C35.8657 51.0117 33.6647 48.8105 31.0751 48.8105C28.4856 48.8105 26.2844 51.0117 26.2844 53.6012C26.2844 53.7307 26.2844 53.8602 26.2844 53.8602C24.3423 54.5076 22.918 56.3203 22.918 58.3919C22.918 60.9814 25.1191 63.1826 27.7087 63.1826C28.615 63.1826 29.3919 62.9236 30.1688 62.5352L29.3918 66.8079L34.3121 66.6785L31.9814 62.6647C32.6288 63.0531 33.4057 63.312 34.3121 63.312C36.9016 63.312 39.1027 61.1109 39.1027 58.5214C39.2321 56.1908 37.8079 54.3781 35.8657 53.8602Z" fill="#5C414E"/>
<path d="M206.515 291.192C206.515 291.321 206.515 291.451 206.515 291.451C206.515 294.04 208.716 296.242 211.305 296.242C213.895 296.242 216.096 294.04 216.096 291.451C216.096 291.321 216.096 291.192 216.096 291.192C218.038 290.545 219.462 288.732 219.462 286.66C219.462 284.071 217.261 281.87 214.672 281.87C213.765 281.87 212.988 282.128 212.212 282.517L212.989 278.244L208.068 278.374L210.399 282.387C209.752 281.999 208.975 281.74 208.068 281.74C205.479 281.74 203.278 283.941 203.278 286.531C203.148 288.732 204.572 290.545 206.515 291.192Z" fill="#5C414E"/>
<path d="M134.01 114.196C134.01 113.937 134.01 113.678 134.01 113.419C134.01 107.075 128.961 102.025 122.616 102.025C116.272 102.025 111.222 107.075 111.222 113.419C111.222 113.678 111.222 113.937 111.222 114.196C106.691 115.621 103.324 120.023 103.324 125.072C103.324 131.417 108.374 136.466 114.718 136.466C116.79 136.466 118.732 135.949 120.415 134.913L118.473 145.012L130.256 144.753L124.817 135.042C126.501 135.949 128.313 136.466 130.385 136.466C136.729 136.466 141.779 131.417 141.779 125.072C141.909 120.023 138.672 115.621 134.01 114.196Z" fill="#5C414E"/>
<path d="M25.1144 11.1359L24.8555 17.4803L37.9328 16.7034L28.0924 40.1389L33.66 41.6926L44.6656 15.6676L44.1477 10.877L25.1144 11.1359Z" fill="#5C414E"/>
<path d="M218.164 333.278L218.423 326.934L205.346 327.71L215.186 304.275L209.619 302.592L198.613 328.617L199.131 333.537L218.164 333.278Z" fill="#5C414E"/>
</svg>

<svg width="244" height="347" fill="none" xmlns="http://www.w3.org/2000/svg"><path d="M235.39 344.281L0 347 7.898 0 243.03.518 235.39 344.28z" fill="#FEF1F0"/><path d="M98.917 63.442v-.776c0-6.345-5.05-11.394-11.394-11.394a11.328 11.328 0 00-11.394 11.394v.776c-4.532 1.425-7.898 5.827-7.898 10.877 0 6.344 5.05 11.394 11.394 11.394 2.071 0 4.013-.518 5.697-1.554l-1.943 10.1 11.783-.26-5.438-9.71c1.683.906 3.496 1.424 5.567 1.424 6.345 0 11.394-5.05 11.394-11.394.13-5.05-3.237-9.323-7.768-10.877zM98.917 162.882v-.777c0-6.344-5.05-11.394-11.394-11.394a11.329 11.329 0 00-11.394 11.394v.777c-4.532 1.424-7.898 5.826-7.898 10.876 0 6.344 5.05 11.394 11.394 11.394 2.071 0 4.013-.518 5.697-1.554l-1.943 10.1 11.783-.259-5.438-9.711c1.683.906 3.496 1.424 5.567 1.424 6.345 0 11.394-5.05 11.394-11.394.13-5.05-3.237-9.452-7.768-10.876zM98.917 262.319v-.777c0-6.344-5.05-11.394-11.394-11.394a11.329 11.329 0 00-11.394 11.394v.777c-4.532 1.425-7.898 5.827-7.898 10.876 0 6.345 5.05 11.394 11.394 11.394 2.071 0 4.013-.517 5.697-1.553l-1.943 10.099 11.783-.259-5.438-9.711c1.683.907 3.496 1.424 5.567 1.424 6.345 0 11.394-5.049 11.394-11.394.13-5.179-3.237-9.451-7.768-10.876zM167.155 63.442v-.776c0-6.345-5.05-11.394-11.394-11.394a11.329 11.329 0 00-11.394 11.394v.776c-4.532 1.425-7.898 5.827-7.898 10.877a11.328 11.328 0 0011.394 11.394c2.071 0 4.014-.518 5.697-1.554l-1.942 10.1 11.782-.26-5.438-9.71c1.683.906 3.496 1.424 5.568 1.424 6.344 0 11.394-5.05 11.394-11.394.129-5.05-3.237-9.323-7.769-10.877zM167.155 162.88v-.777c0-6.344-5.05-11.394-11.394-11.394a11.329 11.329 0 00-11.394 11.394v.777c-4.532 1.424-7.898 5.826-7.898 10.876a11.328 11.328 0 0011.394 11.394c2.071 0 4.014-.518 5.697-1.554l-1.942 10.1 11.782-.259-5.438-9.711c1.683.906 3.496 1.424 5.568 1.424 6.344 0 11.394-5.05 11.394-11.394.129-5.05-3.237-9.452-7.769-10.876zM167.155 262.319v-.777c0-6.344-5.05-11.394-11.394-11.394a11.329 11.329 0 00-11.394 11.394v.777c-4.532 1.425-7.898 5.827-7.898 10.876 0 6.345 5.049 11.394 11.394 11.394 2.071 0 4.014-.517 5.697-1.553l-1.942 10.099 11.782-.259-5.438-9.711c1.683.907 3.496 1.424 5.568 1.424a11.328 11.328 0 0011.394-11.394c.129-5.179-3.237-9.451-7.769-10.876zM35.866 53.86v-.259c0-2.59-2.201-4.79-4.79-4.79-2.59 0-4.792 2.2-4.792 4.79v.26c-1.942.647-3.366 2.46-3.366 4.53 0 2.59 2.201 4.792 4.79 4.792.907 0 1.684-.26 2.46-.648l-.776 4.273 4.92-.13-2.33-4.013a4.472 4.472 0 002.33.647c2.59 0 4.79-2.201 4.79-4.79.13-2.331-1.294-4.144-3.236-4.662zM206.515 291.192v.259c0 2.589 2.201 4.791 4.79 4.791 2.59 0 4.791-2.202 4.791-4.791v-.259c1.942-.647 3.366-2.46 3.366-4.532 0-2.589-2.201-4.79-4.79-4.79-.907 0-1.684.258-2.46.647l.777-4.273-4.921.13 2.331 4.013a4.474 4.474 0 00-2.331-.647c-2.589 0-4.79 2.201-4.79 4.791-.13 2.201 1.294 4.014 3.237 4.661zM134.01 114.196v-.777a11.328 11.328 0 00-11.394-11.394 11.329 11.329 0 00-11.394 11.394v.777c-4.531 1.425-7.898 5.827-7.898 10.876 0 6.345 5.05 11.394 11.394 11.394 2.072 0 4.014-.517 5.697-1.553l-1.942 10.099 11.783-.259-5.439-9.711c1.684.907 3.496 1.424 5.568 1.424a11.328 11.328 0 0011.394-11.394c.13-5.049-3.107-9.451-7.769-10.876zM25.114 11.136l-.259 6.344 13.078-.777-9.84 23.436 5.567 1.554 11.006-26.025-.518-4.791-19.034.259zM218.164 333.278l.259-6.344-13.077.776 9.84-23.435-5.567-1.683-11.006 26.025.518 4.92 19.033-.259z" fill="#5C414E"/></svg>
